!!!OTL: Die himmlischen Freuden (296), S.611f
!!!id: T0486
**kern
*clefG2
*k[]
*G:
{8b
=1
4b
8b
8b
8a
8g
=2
4.a}
4r
=3
{8b
=4
4b
8b
8b
8a
8g
=5
4.a}
4r
=6
{8dd
=7
8b
8b
8dd
8b
8b
16b
16b
=8
4.dd}
4r
=9
{8dd
=10
8b
8b
8b
8dd
8cc
8a
=11
4.g}
4r
=12
{8dd
=13
4b
8b
8a
8g
8a
=14
4.g}
=15
{4.a
=16
4b
8dd
8dd
8cc
8cc
=17
4.b}
4r
==
*-
!!!minrhy: 16
!!!meters: 6/8 ]  ZZ[6
!!!cut: Die himmlischen Freuden (296), S.611f
!!!reg: Luxemburg
!!!trd: Singendes Volk, Esch-Alzette 1937 posth.
!!!rhy1: X_  X__X_X_X_X_  X__.0_   (x2)
!!!rhy2: X_  X__X_X_X_X_  X__.0_
!!!key: T0486  16  G 6/8 ]  ZZ[6
!!!mod: PENTATONIK DUR ?]  AMBITUS[5
!!!kad: 225113
!!!akz: 332_332_335_351_321_2353_
!!!fot: 'a__a__aw_b__c__d__
!!!for: 'a__a__b__c__av_av_
!!!fok: '\__\__V__\__\__^a_
!! PHRAS[AUFTAKTIG]
!!!fkt: ???
!!!bem: Heffingen, fff Ewen, 29.8.1934
!! THILL, Mathias
!! PR[12] 2K[14] 2G[22] 3K[0] 3G[0] 4A[2] 4Ü[0] 5A[0] 6K[2] 6G[0]
!! 7K[0] 7G[0] 8A[0] MEHR[0] SI[40] ABS[50] SR[36] SP[4]
!! ST[12] 2k[16] 2g[24] 3k[6] 3g[2] 4d[0] 4ü[0] 5d[0] 6k[0] 6g[0]
!! 7k[0] 7g[0] 8d[0] mehr[0] si[48] dm[-8] sr[40] sp[8]
!! 1F[33] 2F[50] 3F[8] 4F[2] LF[0] 2P[8] 3P[0] 4P[0] TRI[0] DF[5] AB[52]
!! TF[0] U3K[0] U3[0] U4[0] U4Ü[0] U5[6] U6K[0] U6[18] U7K[0] U7[20]
!! N1[35] N2K[0] N2[12] N3K[0] N3[8] N4[2] N4Ü[0] N5[0] N6K[0] N6[0]
!!!n7k: 0] N7[0] O1[0] O2K[0] O2[0] O3K[0] O3[0] HÖ[0
